X:1
T: Lady Elizabeth's Air
C:
R:Strathspey
Q: 128
K:G
M:4/4
L:1/16
|:B2A2|G6 D2 B,4 D4|E2D2 E2G2 A4 B2c2|d6 B2 c2B2 A2G2|E8 G4 B2A2|
G6 D2 B,4 D4|E2D2 E2G2 e4 ((3g2f2e2) |d4 B4 A6 G2|D4 G4 G4:|
((3d2e2f2)|g6 a2 f4 d4|e4 f2g2 d6 B2|c4 d4 B4 G4|A2^c2 e2g2 f2d2 e2f2|
g6 a2 f4 d4|e2d2 e2g2 d4 B2G2|e2d2 c2B2 A6 G2|G8-G2d2|
|:e2f2|g6 a2 f2d2 B2d2|e2f2 g2e2 d6 B2|c6 d2 B4 G4|e2d2 c2B2 A2c2 B2A2|
G6 D2 B,4 D4|E2D2 E2G2 e4 ((3g2f2e2) |d6 B2 A2G2 F2E2|D4 G4 G4:|
